Komodo/actions/scalable/system-shutdown-symbolic.svg

<?xml version="1.0" encoding="UTF-8" standalone="no"?>
<!-- Created with Inkscape (http://www.inkscape.org/) -->

<svg
   xmlns:dc="http://purl.org/dc/elements/1.1/"
   xmlns:cc="http://creativecommons.org/ns#"
   xmlns:rdf="http://www.w3.org/1999/02/22-rdf-syntax-ns#"
   xmlns:svg="http://www.w3.org/2000/svg"
   xmlns="http://www.w3.org/2000/svg"
   xmlns:xlink="http://www.w3.org/1999/xlink"
   xmlns:sodipodi="http://sodipodi.sourceforge.net/DTD/sodipodi-0.dtd"
   xmlns:inkscape="http://www.inkscape.org/namespaces/inkscape"
   width="16"
   height="16"
   id="svg2"
   sodipodi:version="0.32"
   inkscape:version="0.48.1 r9760"
   version="1.0"
   sodipodi:docname="system-shutdown.svg"
   inkscape:output_extension="org.inkscape.output.svg.inkscape"
   style="display:inline">
  <defs
     id="defs4">
    <inkscape:perspective
       sodipodi:type="inkscape:persp3d"
       inkscape:vp_x="0 : 11 : 1"
       inkscape:vp_y="0 : 1000 : 0"
       inkscape:vp_z="22 : 11 : 1"
       inkscape:persp3d-origin="11 : 7.3333333 : 1"
       id="perspective29" />
    <linearGradient
       id="linearGradient4081">
      <stop
         style="stop-color:#aaaaaa;stop-opacity:1;"
         offset="0"
         id="stop4083" />
      <stop
         style="stop-color:#f0f0f0;stop-opacity:1;"
         offset="1"
         id="stop4085" />
    </linearGradient>
    <linearGradient
       inkscape:collect="always"
       xlink:href="#linearGradient4081"
       id="linearGradient3527"
       gradientUnits="userSpaceOnUse"
       gradientTransform="translate(-39,0)"
       x1="6.8391123"
       y1="16.300354"
       x2="6.8391123"
       y2="6.0528178" />
    <linearGradient
       inkscape:collect="always"
       xlink:href="#linearGradient4081"
       id="linearGradient3538"
       gradientUnits="userSpaceOnUse"
       gradientTransform="translate(-39,0)"
       x1="16.5"
       y1="19.542921"
       x2="16.5"
       y2="2.5" />
    <linearGradient
       inkscape:collect="always"
       xlink:href="#linearGradient4081"
       id="linearGradient3540"
       gradientUnits="userSpaceOnUse"
       gradientTransform="translate(-39,0)"
       x1="14.524625"
       y1="17.41902"
       x2="14.524625"
       y2="4.625" />
    <linearGradient
       inkscape:collect="always"
       xlink:href="#linearGradient4081"
       id="linearGradient3542"
       gradientUnits="userSpaceOnUse"
       gradientTransform="translate(-39,0)"
       x1="10.50519"
       y1="15.28125"
       x2="10.50519"
       y2="6.7458849" />
    <linearGradient
       inkscape:collect="always"
       xlink:href="#linearGradient4081"
       id="linearGradient3266"
       x1="9"
       y1="4.5"
       x2="14"
       y2="4.5"
       gradientUnits="userSpaceOnUse"
       gradientTransform="matrix(0,-1,1,0,6,16)" />
    <linearGradient
       inkscape:collect="always"
       xlink:href="#linearGradient4081"
       id="linearGradient3274"
       x1="11.984375"
       y1="20"
       x2="11.984375"
       y2="7.96875"
       gradientUnits="userSpaceOnUse" />
    <linearGradient
       inkscape:collect="always"
       xlink:href="#linearGradient4081"
       id="linearGradient3280"
       gradientUnits="userSpaceOnUse"
       gradientTransform="matrix(0,-1,1,0,7,16)"
       x1="9"
       y1="4.5"
       x2="14"
       y2="4.5" />
    <linearGradient
       inkscape:collect="always"
       xlink:href="#linearGradient4081"
       id="linearGradient3287"
       gradientUnits="userSpaceOnUse"
       gradientTransform="matrix(0,-1,1,0,7,16)"
       x1="9"
       y1="4.5"
       x2="14"
       y2="4.5" />
    <linearGradient
       inkscape:collect="always"
       xlink:href="#linearGradient4081"
       id="linearGradient3293"
       gradientUnits="userSpaceOnUse"
       x1="11.984375"
       y1="20"
       x2="11.984375"
       y2="7.96875"
       gradientTransform="translate(-1,0)" />
    <linearGradient
       inkscape:collect="always"
       xlink:href="#linearGradient4081"
       id="linearGradient3180"
       x1="-13"
       y1="17.008953"
       x2="-13"
       y2="-0.70032859"
       gradientUnits="userSpaceOnUse" />
    <inkscape:perspective
       id="perspective4374"
       inkscape:persp3d-origin="0.5 : 0.33333333 : 1"
       inkscape:vp_z="1 : 0.5 : 1"
       inkscape:vp_y="0 : 1000 : 0"
       inkscape:vp_x="0 : 0.5 : 1"
       sodipodi:type="inkscape:persp3d" />
    <linearGradient
       inkscape:collect="always"
       xlink:href="#StandardGradient-1"
       id="linearGradient3833-8"
       x1="54"
       y1="3.5"
       x2="59"
       y2="3.5"
       gradientUnits="userSpaceOnUse"
       gradientTransform="translate(-58,53.861161)" />
    <linearGradient
       id="StandardGradient-1"
       gradientTransform="matrix(0.9984539,0,0,0.9984539,-0.0459776,0.05767558)"
       x1="10.710332"
       y1="1.9963325"
       x2="10.710332"
       y2="18.974037"
       gradientUnits="userSpaceOnUse">
      <stop
         style="stop-color:#000000;stop-opacity:0.86274511;"
         offset="0"
         id="stop3277-4" />
      <stop
         style="stop-color:#000000;stop-opacity:0.47058824;"
         offset="1"
         id="stop3279-3" />
    </linearGradient>
    <linearGradient
       y2="3.5"
       x2="59"
       y1="3.5"
       x1="54"
       gradientTransform="translate(-50,53.861161)"
       gradientUnits="userSpaceOnUse"
       id="linearGradient3829-0"
       xlink:href="#SpecificGradient-5"
       inkscape:collect="always" />
    <linearGradient
       id="SpecificGradient-5"
       x1="10.761708"
       y1="3.9999998"
       x2="10.761708"
       y2="18.011395"
       gradientUnits="userSpaceOnUse">
      <stop
         style="stop-color:#a50000;stop-opacity:1;"
         offset="0"
         id="stop3292-8" />
      <stop
         style="stop-color:#e73800;stop-opacity:1;"
         offset="1"
         id="stop3294-0" />
    </linearGradient>
    <linearGradient
       inkscape:collect="always"
       xlink:href="#StandardGradient-1"
       id="linearGradient3664"
       gradientUnits="userSpaceOnUse"
       x1="5"
       y1="1"
       x2="5"
       y2="14"
       gradientTransform="translate(0,1)" />
    <linearGradient
       inkscape:collect="always"
       xlink:href="#StandardGradient-1"
       id="linearGradient3668"
       gradientUnits="userSpaceOnUse"
       gradientTransform="translate(0.8611607,0.9999999)"
       x1="5"
       y1="1"
       x2="5"
       y2="14" />
    <linearGradient
       inkscape:collect="always"
       xlink:href="#StandardGradient-1"
       id="linearGradient3673"
       gradientUnits="userSpaceOnUse"
       x1="5"
       y1="1"
       x2="5"
       y2="14"
       gradientTransform="translate(-29.138839,0.9999999)" />
    <clipPath
       clipPathUnits="userSpaceOnUse"
       id="clipPath3679">
      <path
         style="fill:#ff00ff;fill-opacity:1;stroke:none;display:inline"
         d="m -29.138839,0.9999999 0,16.0000001 16,0 0,-16.0000001 -16,0 z m 7.5,1 1,0 c 0.277,0 0.5,0.223 0.5,0.5 l 0,5 c 0,0.2770001 -0.223,0.5 -0.5,0.5 l -1,0 c -0.277,1e-7 -0.5,-0.223 -0.5,-0.5 l 0,-5 c 0,-0.277 0.223,-0.5 0.5,-0.5 z m -1.5,1.34375 0,2.21875 c -1.193787,0.6923393 -2,1.9590539 -2,3.4375 0,2.2080001 1.792,4.0000001 4,4.0000001 2.208,0 4,-1.792 4,-4.0000001 0,-1.4784459 -0.806213,-2.7451607 -2,-3.4375 l 0,-2.21875 c 2.330779,0.8236389 4,3.0446 4,5.65625 0,3.3120001 -2.688,6.0000001 -6,6.0000001 -3.312,0 -6,-2.688 -6,-6.0000001 0,-2.61165 1.669221,-4.8326111 4,-5.65625 z"
         id="path3681" />
    </clipPath>
    <linearGradient
       inkscape:collect="always"
       xlink:href="#StandardGradient-1"
       id="linearGradient3961"
       gradientUnits="userSpaceOnUse"
       x1="5"
       y1="1"
       x2="5"
       y2="14" />
    <linearGradient
       inkscape:collect="always"
       xlink:href="#StandardGradient-1"
       id="linearGradient3965"
       gradientUnits="userSpaceOnUse"
       x1="5"
       y1="1"
       x2="5"
       y2="14" />
  </defs>
  <sodipodi:namedview
     id="base"
     pagecolor="#ffffff"
     bordercolor="#e7e7e7"
     borderopacity="1"
     inkscape:pageopacity="0.0"
     inkscape:pageshadow="2"
     inkscape:zoom="17.118011"
     inkscape:cx="-6.3700494"
     inkscape:cy="4.9386027"
     inkscape:document-units="px"
     inkscape:current-layer="layer1"
     showgrid="true"
     inkscape:showpageshadow="false"
     showguides="false"
     inkscape:guide-bbox="true"
     inkscape:window-width="1920"
     inkscape:window-height="1028"
     inkscape:window-x="0"
     inkscape:window-y="25"
     inkscape:window-maximized="1">
    <sodipodi:guide
       orientation="1,0"
       position="0,112"
       id="guide2383" />
    <sodipodi:guide
       orientation="0,1"
       position="26.278146,128"
       id="guide2385" />
    <sodipodi:guide
       orientation="1,0"
       position="128,54.082119"
       id="guide2387" />
    <sodipodi:guide
       orientation="0,1"
       position="78.156291,0"
       id="guide2389" />
    <sodipodi:guide
       orientation="0,1"
       position="60.863576,64.084768"
       id="guide2391" />
    <inkscape:grid
       type="xygrid"
       id="grid3672"
       visible="true"
       enabled="true" />
  </sodipodi:namedview>
  <metadata
     id="metadata7">
    <rdf:RDF>
      <cc:Work
         rdf:about="">
        <dc:format>image/svg+xml</dc:format>
        <dc:type
           rdf:resource="http://purl.org/dc/dcmitype/StillImage" />
      </cc:Work>
    </rdf:RDF>
  </metadata>
  <g
     inkscape:label="Icon"
     inkscape:groupmode="layer"
     id="layer1"
     style="display:inline"
     transform="translate(-0.8611607,-0.9999999)">
    <path
       style="opacity:1;fill:#bebebe;fill-opacity:1;fill-rule:nonzero;stroke:none;stroke-width:2;stroke-linecap:square;stroke-linejoin:round;stroke-miterlimit:4;stroke-dasharray:none;stroke-dashoffset:0;stroke-opacity:1"
       d="M 7.5 1 C 7.223 1 7.0000001 1.223 7 1.5 L 7 6.5 C 7 6.777 7.2230001 7.0000001 7.5 7 L 8.5 7 C 8.777 7 9.0000001 6.7770001 9 6.5 L 9 1.5 C 9 1.223 8.7770001 0.99999998 8.5 1 L 7.5 1 z M 6 2.34375 C 3.6692215 3.1673889 2 5.38835 2 8 C 2 11.312 4.6880002 14 8 14 C 11.312 14 14 11.312 14 8 C 14 5.38835 12.330779 3.1673889 10 2.34375 L 10 4.5625 C 11.193787 5.2548393 12 6.5215541 12 8 C 12 10.208 10.208 12 8 12 C 5.7920001 12 4 10.208 4 8 C 4 6.5215539 4.8062133 5.2548393 6 4.5625 L 6 2.34375 z "
       transform="translate(0.8611607,0.9999999)"
       id="path2401" />
  </g>
</svg>

<?xml version="1.0" encoding="UTF-8" standalone="no"?>
<!-- Created with Inkscape (http://www.inkscape.org/) -->
<svg id="svg2" xmlns:rdf="http://www.w3.org/1999/02/22-rdf-syntax-ns#" xmlns="http://www.w3.org/2000/svg" height="16" width="16" version="1.0" xmlns:cc="http://creativecommons.org/ns#" xmlns:xlink="http://www.w3.org/1999/xlink" xmlns:dc="http://purl.org/dc/elements/1.1/">
 <metadata id="metadata7">
  <rdf:RDF>
   <cc:Work rdf:about="">
    <dc:format>image/svg+xml</dc:format>
    <dc:type rdf:resource="http://purl.org/dc/dcmitype/StillImage"/>
   </cc:Work>
  </rdf:RDF>
 </metadata>
 <g id="layer1" transform="translate(-.86116 -1)">
  <path id="path2401" style="fill:#bebebe" d="m7.5 1c-0.277 0-0.5 0.223-0.5 0.5v5c0 0.277 0.223 0.5 0.5 0.5h1c0.277 0 0.5-0.223 0.5-0.5v-5c0-0.277-0.223-0.5-0.5-0.5h-1zm-1.5 1.3438c-2.3308 0.8236-4 3.0446-4 5.6562 0 3.312 2.688 6 6 6s6-2.688 6-6c0-2.6116-1.669-4.8326-4-5.6562v2.2187c1.194 0.6923 2 1.9591 2 3.4375 0 2.208-1.792 4-4 4s-4-1.792-4-4c0-1.4784 0.8062-2.7452 2-3.4375v-2.2187z" transform="translate(.86116 1)"/>
 </g>
</svg>
